X:185
T: Can gong diao
N: C0307
O: China,Shandong, Qixia
S: III, 361]
N: Sehr typisch. Nur 6 Toene.
N: Eine Verzierung.
R: Xiaodiao. Yang can]
M: 2/4
L: 1/16
K: C
A2E2G2GA | cAGAc4 | A2e4de | B2A2G4 |
e2d2e2de | B2A2AGE2 | c2AcE2D2 | C8 |
e2dee2dB | AGAcG2GE | c2c4E2 | G2E2D4 |
A2E2G2GG | AGAGG2EG | A2c4CD | EGEDC4

@@@ Tune index: 6186
